X:11386
T:Muiñeira De F\'atima
O:Galicia (Spain)
Z:Covertido de Midi a abc por Antonio-Nil
N:http://www.arrakis.es/~jpresedo/
C: Jos\'e J. Presedo jpresedo@arrakis.es
M: 4/4
L: 1/8
Q:1/4=285
K:C % 0 sharps
C: Jose J. Presedo Diaz.
V:1
z4 z/2g3/2 c'3/2e/2-|eg3/2b3/2 a3/2f3/2c'-|c'/2b3/2 e/2f/2[f/2e/2]e/2 f/2[f/2e/2]d3/2g3/2|c'3/2b3/2e3/2a3/2 g3/2b/2-|
ba3/2b3/2 f/2g/2[g/2f/2]f/2 g/2[g/2f/2]e-|e/2c3/2 f3/2a3/2c'3/2a3/2|f3/2d3/2f3/2^a3/2 =a3/2g/2-|gf3/2c3/2 f3/2a3/2c'-|
c'/2^a3/2 =a3/2d3/2g3/2B3/2|c4- c/2g3/2 c'3/2e/2-|eg3/2b3/2 a3/2f3/2c'-|c'/2b3/2 e/2f/2[f/2e/2]e/2 f/2[f/2e/2]d3/2g3/2|
c'3/2b3/2e3/2a3/2 g3/2b/2-|ba3/2b3/2 f/2g/2[g/2f/2]f/2 g/2[g/2f/2]e-|e/2c3/2 f3/2a3/2c'3/2a3/2|f3/2d3/2f3/2^a3/2 =a3/2g/2-|
gf3/2c3/2 f3/2a3/2c'-|c'/2^a3/2 =a3/2d3/2g3/2B3/2|c4- c/2g3/2 c'3/2e/2-|ef/2g/2 [g/2f/2]f/2g/2[g/2f/2] c3/2^a3/2=a-|
a/2g3/2 c'3/2^a3/2=a3/2g3/2|d3/2^a3/2c'3/2=a3/2 f3/2^a/2-|^ac'3/2^a3/2 =a/2^a/2[^a/2=a/2]a/2 ^a/2[^a/2=a/2]f-|f/2d3/2 d'3/2a3/2c'3|
^a3/2g3/2d'3/2c'3/2 f3/2c'/2-|c'^a3/2e3/2 ^a3/2=a3/2f-|f/2a3/2 f3/2B3/2d3/2g3/2|c4- c/2g3/2 c'3/2e/2-|
ef/2g/2 [g/2f/2]f/2g/2[g/2f/2] c3/2^a3/2=a-|a/2g3/2 c'3/2^a3/2=a3/2g3/2|d3/2^a3/2c'3/2=a3/2 f3/2^a/2-|^ac'3/2^a3/2 =a/2^a/2[^a/2=a/2]a/2 ^a/2[^a/2=a/2]f-|
f/2d3/2 d'3/2a3/2c'3|^a3/2g3/2d'3/2c'3/2 f3/2c'/2-|c'^a3/2e3/2 ^a3/2=a3/2f-|f/2a3/2 f3/2B3/2d3/2g3/2|
c4- c/2f3/2 ^a3/2f/2-|fg/2=a/2 g2- [g/2e/2-]eg3/2c'-|c'/2g3/2 a/2b/2a2-[a/2g/2-]gf3/2|a3/2d3/2^a3/2g3/2 ^a3/2d/2-|
d^a3/2=a3/2 f3/2a3/2d-|d/2f3/2 ^a3/2f3/2g/2=a/2 g2-|[g/2e/2-]eg3/2c'3/2g3/2 a/2b/2a-|a-[a/2g/2-]gd3/2 a3/2g3/2^a-|
^a/2=a3/2 g3/2f3/2e3/2d3/2|c4- c/2f3/2 ^a3/2f/2-|fg/2=a/2 g2- [g/2e/2-]eg3/2c'-|c'/2g3/2 a/2b/2a2-[a/2g/2-]gf3/2|
a3/2d3/2^a3/2g3/2 ^a3/2d/2-|d^a3/2=a3/2 f3/2a3/2d-|d/2f3/2 ^a3/2f3/2g/2=a/2 g2-|[g/2e/2-]eg3/2c'3/2g3/2 a/2b/2a-|
a-[a/2g/2-]gd3/2 a3/2g3/2^a-|^a/2=a3/2 g3/2f3/2e3/2d3/2|c4- c/2g3/2 c'3/2e/2-|eg3/2b3/2 a3/2f3/2c'-|
c'/2b3/2 e/2f/2[f/2e/2]e/2 f/2[f/2e/2]d3/2g3/2|c'3/2b3/2e3/2a3/2 g3/2b/2-|ba3/2b3/2 f/2g/2[g/2f/2]f/2 g/2[g/2f/2]e-|e/2c3/2 f3/2a3/2c'3/2a3/2|
f3/2d3/2f3/2^a3/2 =a3/2g/2-|gf3/2c3/2 f3/2a3/2c'-|c'/2^a3/2 =a3/2d3/2g3/2B3/2|c4- c/2g3/2 c'3/2e/2-|
eg3/2b3/2 a3/2f3/2c'-|c'/2b3/2 e/2f/2[f/2e/2]e/2 f/2[f/2e/2]d3/2g3/2|c'3/2b3/2e3/2a3/2 g3/2b/2-|ba3/2b3/2 f/2g/2[g/2f/2]f/2 g/2[g/2f/2]e-|
e/2c3/2 f3/2a3/2c'3/2a3/2|f3/2d3/2f3/2^a3/2 =a3/2g/2-|gf3/2c3/2 f3/2a3/2c'-|c'/2^a3/2 =a3/2d3/2g3/2B3/2|
c4- c/2g3/2 c'3/2e/2-|ef/2g/2 [g/2f/2]f/2g/2[g/2f/2] c3/2^a3/2=a-|a/2g3/2 c'3/2^a3/2=a3/2g3/2|d3/2^a3/2c'3/2=a3/2 f3/2^a/2-|
^ac'3/2^a3/2 =a/2^a/2[^a/2=a/2]a/2 ^a/2[^a/2=a/2]f-|f/2d3/2 d'3/2a3/2c'3|^a3/2g3/2d'3/2c'3/2 f3/2c'/2-|c'^a3/2e3/2 ^a3/2=a3/2f-|
f/2a3/2 f3/2B3/2d3/2g3/2|c4- c/2g3/2 c'3/2e/2-|ef/2g/2 [g/2f/2]f/2g/2[g/2f/2] c3/2^a3/2=a-|a/2g3/2 c'3/2^a3/2=a3/2g3/2|
d3/2^a3/2c'3/2=a3/2 f3/2^a/2-|^ac'3/2^a3/2 =a/2^a/2[^a/2=a/2]a/2 ^a/2[^a/2=a/2]f-|f/2d3/2 d'3/2a3/2c'3|^a3/2g3/2d'3/2c'3/2 f3/2c'/2-|
c'^a3/2e3/2 ^a3/2=a3/2f-|f/2a3/2 f3/2B3/2d3/2g3/2|c4- c/2f3/2 ^a3/2f/2-|fg/2=a/2 g2- [g/2e/2-]eg3/2c'-|
c'/2g3/2 a/2b/2a2-[a/2g/2-]gf3/2|a3/2d3/2^a3/2g3/2 ^a3/2d/2-|d^a3/2=a3/2 f3/2a3/2d-|d/2f3/2 ^a3/2f3/2g/2=a/2 g2-|
[g/2e/2-]eg3/2c'3/2g3/2 a/2b/2a-|a-[a/2g/2-]gd3/2 a3/2g3/2^a-|^a/2=a3/2 g3/2f3/2e3/2d3/2|c4- c/2f3/2 ^a3/2f/2-|
fg/2=a/2 g2- [g/2e/2-]eg3/2c'-|c'/2g3/2 a/2b/2a2-[a/2g/2-]gf3/2|a3/2d3/2^a3/2g3/2 ^a3/2d/2-|d^a3/2=a3/2 f3/2a3/2d-|
d/2f3/2 ^a3/2f3/2g/2=a/2 g2-|[g/2e/2-]eg3/2c'3/2g3/2 a/2b/2a-|a-[a/2g/2-]gd3/2 a3/2g3/2^a-|^a/2=a3/2 g3/2f3/2e3/2d3/2|
c4- c/2g3/2 c'3/2e/2-|eg3/2b3/2 a3/2f3/2c'-|c'/2b3/2 e/2f/2[f/2e/2]e/2 f/2[f/2e/2]d3/2g3/2|c'3/2b3/2e3/2a3/2 g3/2b/2-|
ba3/2b3/2 f/2g/2[g/2f/2]f/2 g/2[g/2f/2]e-|e/2c3/2 f3/2a3/2c'3/2a3/2|f3/2d3/2f3/2^a3/2 =a3/2g/2-|gf3/2c3/2 f3/2a3/2c'-|
c'/2^a3/2 =a3/2d3/2g3/2B3/2|c4- c/2g3/2 c'3/2e/2-|eg3/2b3/2 a3/2f3/2c'-|c'/2b3/2 e/2f/2[f/2e/2]e/2 f/2[f/2e/2]d3/2g3/2|
c'3/2b3/2e3/2a3/2 g3/2b/2-|ba3/2b3/2 f/2g/2[g/2f/2]f/2 g/2[g/2f/2]e-|e/2c3/2 f3/2a3/2c'3/2a3/2|f3/2d3/2f3/2^a3/2 =a3/2g/2-|
gf3/2c3/2 f3/2a3/2c'-|c'/2^a3/2 =a3/2d3/2g3/2B3/2|c3
V:2
z4 z/2c3/2 d3/2e/2-|ee3 f3/2d2-d/2-|d/2g3/2 c3/2g3/2f3/2d3/2|c3/2g3/2e4-e/2g/2-|
g4 B3/2a3/2g-|g/2e3/2 d3/2f3/2f3-|f3/2d4-d/2 d3/2b/2-|ba3/2f3/2 d3/2f3/2a-|
a3-a/2g4-g/2|f4- f/2c3/2 d3/2e/2-|ee3 f3/2d2-d/2-|d/2g3/2 c3/2g3/2f3/2d3/2|
c3/2g3/2e4-e/2g/2-|g4 B3/2a3/2g-|g/2e3/2 d3/2f3/2f3-|f3/2d4-d/2 d3/2b/2-|
ba3/2f3/2 d3/2f3/2a-|a3-a/2g4-g/2|f4- f/2c3/2 d3/2e/2-|ef3/2a3/2 f3/2g3/2f-|
f/2e3/2 a3/2g3/2f3/2c3/2|d3/2e3/2c3/2d3/2 c3/2f/2-|fg3/2f3/2 f3/2d3/2f-|f/2f3/2 g3/2a3/2f3|
g3/2e3/2d3/2c3/2 d3/2e/2-|ef3/2g3/2 d'3/2c'3/2^a-|^a/2=a3/2 g3/2f3/2d3/2e3/2|f4- f/2c3/2 d3/2e/2-|
ef3/2a3/2 f3/2g3/2f-|f/2e3/2 a3/2g3/2f3/2c3/2|d3/2e3/2c3/2d3/2 c3/2f/2-|fg3/2f3/2 f3/2d3/2f-|
f/2f3/2 g3/2a3/2f3|g3/2e3/2d3/2c3/2 d3/2e/2-|ef3/2g3/2 d'3/2c'3/2^a-|^a/2=a3/2 g3/2f3/2d3/2e3/2|
f4- f/2f3-f/2-|fe4-e/2c2-c/2-|c2 f4- f/2d3/2-|d3g4-g/2B/2-|
Bd3/2f3/2 d4-|d/2f4-f/2e3-|e3/2c4-c/2 f2-|f2- f/2d'3/2 c'3/2^a3/2g-|
g/2d'3/2 c'3/2^a3/2=a3/2g3/2|f4- f/2f3-f/2-|fe4-e/2c2-c/2-|c2 f4- f/2d3/2-|
d3g4-g/2B/2-|Bd3/2f3/2 d4-|d/2f4-f/2e3-|e3/2c4-c/2 f2-|
f2- f/2d'3/2 c'3/2^a3/2g-|g/2d'3/2 c'3/2^a3/2=a3/2g3/2|f4- f/2c3/2 d3/2e/2-|ee3 f3/2d2-d/2-|
d/2g3/2 c3/2g3/2f3/2d3/2|c3/2g3/2e4-e/2g/2-|g4 B3/2a3/2g-|g/2e3/2 d3/2f3/2f3-|
f3/2d4-d/2 d3/2b/2-|ba3/2f3/2 d3/2f3/2a-|a3-a/2g4-g/2|f4- f/2c3/2 d3/2e/2-|
ee3 f3/2d2-d/2-|d/2g3/2 c3/2g3/2f3/2d3/2|c3/2g3/2e4-e/2g/2-|g4 B3/2a3/2g-|
g/2e3/2 d3/2f3/2f3-|f3/2d4-d/2 d3/2b/2-|ba3/2f3/2 d3/2f3/2a-|a3-a/2g4-g/2|
f4- f/2c3/2 d3/2e/2-|ef3/2a3/2 f3/2g3/2f-|f/2e3/2 a3/2g3/2f3/2c3/2|d3/2e3/2c3/2d3/2 c3/2f/2-|
fg3/2f3/2 f3/2d3/2f-|f/2f3/2 g3/2a3/2f3|g3/2e3/2d3/2c3/2 d3/2e/2-|ef3/2g3/2 d'3/2c'3/2^a-|
^a/2=a3/2 g3/2f3/2d3/2e3/2|f4- f/2c3/2 d3/2e/2-|ef3/2a3/2 f3/2g3/2f-|f/2e3/2 a3/2g3/2f3/2c3/2|
d3/2e3/2c3/2d3/2 c3/2f/2-|fg3/2f3/2 f3/2d3/2f-|f/2f3/2 g3/2a3/2f3|g3/2e3/2d3/2c3/2 d3/2e/2-|
ef3/2g3/2 d'3/2c'3/2^a-|^a/2=a3/2 g3/2f3/2d3/2e3/2|f4- f/2f3-f/2-|fe4-e/2c2-c/2-|
c2 f4- f/2d3/2-|d3g4-g/2B/2-|Bd3/2f3/2 d4-|d/2f4-f/2e3-|
e3/2c4-c/2 f2-|f2- f/2d'3/2 c'3/2^a3/2g-|g/2d'3/2 c'3/2^a3/2=a3/2g3/2|f4- f/2f3-f/2-|
fe4-e/2c2-c/2-|c2 f4- f/2d3/2-|d3g4-g/2B/2-|Bd3/2f3/2 d4-|
d/2f4-f/2e3-|e3/2c4-c/2 f2-|f2- f/2d'3/2 c'3/2^a3/2g-|g/2d'3/2 c'3/2^a3/2=a3/2g3/2|
f4- f/2c3/2 d3/2e/2-|ee3 f3/2d2-d/2-|d/2g3/2 c3/2g3/2f3/2d3/2|c3/2g3/2e4-e/2g/2-|
g4 B3/2a3/2g-|g/2e3/2 d3/2f3/2f3-|f3/2d4-d/2 d3/2b/2-|ba3/2f3/2 d3/2f3/2a-|
a3-a/2g4-g/2|f4- f/2c3/2 d3/2e/2-|ee3 f3/2d2-d/2-|d/2g3/2 c3/2g3/2f3/2d3/2|
c3/2g3/2e4-e/2g/2-|g4 B3/2a3/2g-|g/2e3/2 d3/2f3/2f3-|f3/2d4-d/2 d3/2b/2-|
ba3/2f3/2 d3/2f3/2a-|a3-a/2g4-g/2|f3


